X:1
T:A New War Song by Sir Peter Parker
M:6/4
L:1/4
K:G
 D| G A B B2 G/2G/2| F G A A2 F/2F/2| G A B B A G| B d2- d2 B/2B/2|\
 c d e e2 c| B A G d2 B| c B c A d c| B G2- G2||
